X: 5426
T: Bull Moose
R: reel
M: 4/4
K: Gmajor
DB,|"D" A,B,DF "C" E2 DF|"D" Ad^cd "Am" fdAB|"C" c2 cB "G/B" cdef|"G" gagf "C" e2 fe|
"D" defd "C" ABAG|"D" FDFA "Am" d2 AB|"C" c2 cB "G/B" cBAG|"C" FDFA"D" d2:|
|:z e|"D" fefg "Em" afdf|" C" e c2 c "G" cdeg|"D" f2 d2 ABAG|FDFA d3 e|
"D" fefg afdf|"C/D" e c2 c cdeg|"D" f2 d2 "Am7" ABAG|"D" F2 D2 D2:|

